x-pack/plugins/enterprise_search/public/applications/workplace_search/components/shared/assets/custom.svg

<svg width="100" height="100" viewBox="0 0 100 100" fill="none" xmlns="http://www.w3.org/2000/svg">
<circle cx="50" cy="50" r="35" fill="#0060D5"/>
<mask id="mask0" mask-type="alpha" maskUnits="userSpaceOnUse" x="15" y="15" width="70" height="70">
<circle cx="50" cy="50" r="35" fill="#0060D5"/>
</mask>
<g mask="url(#mask0)">
<path fill-rule="evenodd" clip-rule="evenodd" d="M50 10C42.705 10 35.8875 11.985 30 15.395C41.9425 22.315 50 35.2025 50 50C50 64.7975 41.9425 77.685 30 84.605C35.8875 88.015 42.705 90 50 90C72.0925 90 90 72.0925 90 50C90 27.9075 72.0925 10 50 10Z" stroke="white" stroke-width="3"/>
<path d="M50.555 30L51.7361 29.0753L51.2857 28.5H50.555V30ZM50.561 30.0077L49.3798 30.9323L49.8146 31.4877L50.5197 31.5072L50.561 30.0077ZM50.561 69.9923L50.5197 68.4928L49.8143 68.5123L49.3796 69.0681L50.561 69.9923ZM50.555 70V71.5H51.2861L51.7365 70.9242L50.555 70ZM30 71.5H44.62V68.5H30V71.5ZM8.5 50C8.5 61.8734 18.1266 71.5 30 71.5V68.5C19.7834 68.5 11.5 60.2166 11.5 50H8.5ZM30 28.5C18.1266 28.5 8.5 38.1266 8.5 50H11.5C11.5 39.7834 19.7834 31.5 30 31.5V28.5ZM44.62 28.5H30V31.5H44.62V28.5ZM50 28.5H44.62V31.5H50V28.5ZM50.555 28.5H50V31.5H50.555V28.5ZM51.7422 29.0832C51.7402 29.0806 51.7381 29.078 51.7361 29.0753L49.3739 30.9247C49.3759 30.9272 49.3779 30.9297 49.3798 30.9323L51.7422 29.0832ZM71.5 50C71.5 38.328 62.1977 28.8277 50.6024 28.5083L50.5197 31.5072C60.4956 31.782 68.5 39.9572 68.5 50H71.5ZM50.6024 71.4917C62.1977 71.1723 71.5 61.672 71.5 50H68.5C68.5 60.0428 60.4956 68.218 50.5197 68.4928L50.6024 71.4917ZM51.7365 70.9242C51.7373 70.9231 51.7381 70.9221 51.7392 70.9207C51.7401 70.9195 51.7413 70.918 51.7425 70.9165L49.3796 69.0681C49.3787 69.0691 49.3779 69.0702 49.3769 69.0715C49.3759 69.0728 49.3747 69.0743 49.3735 69.0758L51.7365 70.9242ZM50 71.5H50.555V68.5H50V71.5ZM44.62 71.5H50V68.5H44.62V71.5Z" fill="white"/>
</g>
</svg>

<svg width="100" height="100" fill="none" xmlns="http://www.w3.org/2000/svg"><circle cx="50" cy="50" r="35" fill="#0060D5"/><mask id="a" mask-type="alpha" maskUnits="userSpaceOnUse" x="15" y="15" width="70" height="70"><circle cx="50" cy="50" r="35" fill="#0060D5"/></mask><g mask="url(#a)"><path clip-rule="evenodd" d="M50 10c-7.295 0-14.112 1.985-20 5.395C41.943 22.315 50 35.203 50 50c0 14.797-8.057 27.685-20 34.605C35.888 88.015 42.705 90 50 90c22.093 0 40-17.907 40-40S72.093 10 50 10z" stroke="#fff" stroke-width="3"/><path d="M50.555 30l1.181-.925-.45-.575h-.731V30zm.006.008l-1.181.924.435.556.705.02.041-1.5zm0 39.984l-.041-1.5-.706.02-.434.556 1.181.924zm-.006.008v1.5h.731l.45-.576L50.556 70zM30 71.5h14.62v-3H30v3zM8.5 50c0 11.873 9.627 21.5 21.5 21.5v-3c-10.217 0-18.5-8.283-18.5-18.5h-3zM30 28.5C18.127 28.5 8.5 38.127 8.5 50h3c0-10.217 8.283-18.5 18.5-18.5v-3zm14.62 0H30v3h14.62v-3zm5.38 0h-5.38v3H50v-3zm.555 0H50v3h.555v-3zm1.187.583l-.006-.008-2.362 1.85a.22.22 0 01.006.007l2.362-1.849zM71.5 50c0-11.672-9.302-21.172-20.898-21.492l-.082 3c9.976.274 17.98 8.45 17.98 18.492h3zM50.602 71.492C62.198 71.172 71.5 61.672 71.5 50h-3c0 10.043-8.004 18.218-17.98 18.493l.082 2.999zm1.135-.568l.002-.003.004-.005-2.363-1.848-.003.004-.004.004 2.364 1.848zM50 71.5h.555v-3H50v3zm-5.38 0H50v-3h-5.38v3z" fill="#fff"/></g></svg>
